images/portal/4848.svg

<?xml version="1.0" standalone="no"?><!DOCTYPE svg PUBLIC "-//W3C//DTD SVG 1.1//EN" "http://www.w3.org/Graphics/SVG/1.1/DTD/svg11.dtd"><svg xmlns:xlink="http://www.w3.org/1999/xlink" version="1.1" class="highcharts-root" style="font-family:arial;font-size:12px;" xmlns="http://www.w3.org/2000/svg" width="485" height="415"><desc>Created with Highstock 5.0.14</desc><defs><clipPath id="highcharts-82sffpk-6"><rect x="0" y="0" width="252" height="312" fill="none"></rect></clipPath><clipPath id="highcharts-82sffpk-7"><rect x="0" y="0" width="252" height="312" fill="none"></rect></clipPath></defs><rect fill="#fbfbfb" class="highcharts-background" x="0" y="0" width="485" height="415" rx="0" ry="0"></rect><rect fill="none" class="highcharts-plot-background" x="163" y="112" width="312" height="252"></rect><g class="highcharts-pane-group"></g><g class="highcharts-grid highcharts-xaxis-grid "><path fill="none" class="highcharts-grid-line" d="M 163 148.5 L 475 148.5" opacity="1"></path><path fill="none" class="highcharts-grid-line" d="M 163 184.5 L 475 184.5" opacity="1"></path><path fill="none" class="highcharts-grid-line" d="M 163 220.5 L 475 220.5" opacity="1"></path><path fill="none" class="highcharts-grid-line" d="M 163 256.5 L 475 256.5" opacity="1"></path><path fill="none" class="highcharts-grid-line" d="M 163 292.5 L 475 292.5" opacity="1"></path><path fill="none" class="highcharts-grid-line" d="M 163 328.5 L 475 328.5" opacity="1"></path><path fill="none" class="highcharts-grid-line" d="M 163 364.5 L 475 364.5" opacity="1"></path><path fill="none" class="highcharts-grid-line" d="M 163 112.5 L 475 112.5" opacity="1"></path></g><g class="highcharts-grid highcharts-yaxis-grid "><path fill="none" stroke="#e6e6e6" stroke-width="1" class="highcharts-grid-line" d="M 162.5 112 L 162.5 364" opacity="1"></path><path fill="none" stroke="#e6e6e6" stroke-width="1" class="highcharts-grid-line" d="M 224.5 112 L 224.5 364" opacity="1"></path><path fill="none" stroke="#e6e6e6" stroke-width="1" class="highcharts-grid-line" d="M 287.5 112 L 287.5 364" opacity="1"></path><path fill="none" stroke="#e6e6e6" stroke-width="1" class="highcharts-grid-line" d="M 349.5 112 L 349.5 364" opacity="1"></path><path fill="none" stroke="#e6e6e6" stroke-width="1" class="highcharts-grid-line" d="M 412.5 112 L 412.5 364" opacity="1"></path><path fill="none" stroke="#e6e6e6" stroke-width="1" class="highcharts-grid-line" d="M 475.5 112 L 475.5 364" opacity="1"></path></g><rect fill="none" class="highcharts-plot-border" x="163" y="112" width="312" height="252"></rect><g class="highcharts-axis highcharts-xaxis "><path fill="none" class="highcharts-tick" stroke="#FFFFFF" stroke-width="1" d="M 163 148.5 L 153 148.5" opacity="1"></path><path fill="none" class="highcharts-tick" stroke="#FFFFFF" stroke-width="1" d="M 163 184.5 L 153 184.5" opacity="1"></path><path fill="none" class="highcharts-tick" stroke="#FFFFFF" stroke-width="1" d="M 163 220.5 L 153 220.5" opacity="1"></path><path fill="none" class="highcharts-tick" stroke="#FFFFFF" stroke-width="1" d="M 163 256.5 L 153 256.5" opacity="1"></path><path fill="none" class="highcharts-tick" stroke="#FFFFFF" stroke-width="1" d="M 163 292.5 L 153 292.5" opacity="1"></path><path fill="none" class="highcharts-tick" stroke="#FFFFFF" stroke-width="1" d="M 163 328.5 L 153 328.5" opacity="1"></path><path fill="none" class="highcharts-tick" stroke="#FFFFFF" stroke-width="1" d="M 163 364.5 L 153 364.5" opacity="1"></path><path fill="none" class="highcharts-tick" stroke="#FFFFFF" stroke-width="1" d="M 163 111.5 L 153 111.5" opacity="1"></path><path fill="none" class="highcharts-axis-line" stroke="#ccd6eb" stroke-width="1" d="M 162.5 112 L 162.5 364"></path></g><g class="highcharts-axis highcharts-yaxis "><path fill="none" class="highcharts-axis-line" d="M 163 364 L 475 364"></path></g><g class="highcharts-series-group"><g class="highcharts-series highcharts-series-0 highcharts-column-series highcharts-color-undefined " transform="translate(475,364) rotate(90) scale(-1,1) scale(1 1)" clip-path="url(#highcharts-82sffpk-7)"><rect x="234.5" y="130.5" width="9" height="182" fill="#256370" stroke="#ffffff" stroke-width="1" class="highcharts-point"></rect><rect x="198.5" y="183.5" width="9" height="129" fill="#256370" stroke="#ffffff" stroke-width="1" class="highcharts-point"></rect><rect x="162.5" y="260.5" width="9" height="52" fill="#256370" stroke="#ffffff" stroke-width="1" class="highcharts-point"></rect><rect x="126.5" y="173.5" width="9" height="139" fill="#256370" stroke="#ffffff" stroke-width="1" class="highcharts-point"></rect><rect x="90.5" y="104.5" width="9" height="208" fill="#256370" stroke="#ffffff" stroke-width="1" class="highcharts-point"></rect><rect x="54.5" y="169.5" width="9" height="143" fill="#256370" stroke="#ffffff" stroke-width="1" class="highcharts-point"></rect><rect x="18.5" y="21.5" width="9" height="291" fill="#256370" stroke="#ffffff" stroke-width="1" class="highcharts-point"></rect></g><g class="highcharts-markers highcharts-series-0 highcharts-column-series highcharts-color-undefined " transform="translate(475,364) rotate(90) scale(-1,1) scale(1 1)" clip-path="none"></g><g class="highcharts-series highcharts-series-1 highcharts-column-series highcharts-color-undefined " transform="translate(475,364) rotate(90) scale(-1,1) scale(1 1)" clip-path="url(#highcharts-82sffpk-7)"><rect x="223.5" y="146.5" width="9" height="166" fill="#A8C4CB" stroke="#ffffff" stroke-width="1" class="highcharts-point"></rect><rect x="187.5" y="194.5" width="9" height="118" fill="#A8C4CB" stroke="#ffffff" stroke-width="1" class="highcharts-point"></rect><rect x="151.5" y="253.5" width="9" height="59" fill="#A8C4CB" stroke="#ffffff" stroke-width="1" class="highcharts-point"></rect><rect x="115.5" y="193.5" width="9" height="119" fill="#A8C4CB" stroke="#ffffff" stroke-width="1" class="highcharts-point"></rect><rect x="79.5" y="117.5" width="9" height="195" fill="#A8C4CB" stroke="#ffffff" stroke-width="1" class="highcharts-point"></rect><rect x="43.5" y="165.5" width="9" height="147" fill="#A8C4CB" stroke="#ffffff" stroke-width="1" class="highcharts-point"></rect><rect x="7.5" y="19.5" width="9" height="293" fill="#A8C4CB" stroke="#ffffff" stroke-width="1" class="highcharts-point"></rect></g><g class="highcharts-markers highcharts-series-1 highcharts-column-series highcharts-color-undefined " transform="translate(475,364) rotate(90) scale(-1,1) scale(1 1)" clip-path="none"></g></g><text x="10" text-anchor="start" class="highcharts-title" style="color:#000000;font-size:14px;font-weight:bold;fill:#000000;" y="21"><tspan>Unterstützung von Freunden oder Nachbarn</tspan></text><text x="10" text-anchor="start" class="highcharts-subtitle" style="color:#000000;font-size:12px;font-weight:normal;font-family:arial;fill:#000000;" y="40"><tspan>«Jeder Mensch braucht in seinem Leben einmal Unterstützung oder Hilfe.</tspan><tspan dy="15" x="10">Wenn Sie zurück denken, haben Sie sich in nachfolgenden Situationen auch</tspan><tspan dy="15" x="10">an Freunde/Nachbarn gewendet?»</tspan><title>«Jeder Mensch braucht in seinem Leben einmal Unterstützung oder Hilfe. Wenn Sie zurück denken, haben Sie sich in nachfolgenden Situationen auch an Freunde/Nachbarn gewendet?»</title></text><g class="highcharts-legend" transform="translate(153,75)"><rect fill="none" class="highcharts-legend-box" rx="0" ry="0" x="0" y="0" width="238" height="25" visibility="visible"></rect><g><g><g class="highcharts-legend-item highcharts-column-series highcharts-color-undefined highcharts-series-0" transform="translate(8,3)"><text x="21" style="color:#333333;font-size:12px;font-weight:normal;cursor:pointer;fill:#333333;" text-anchor="start" y="15"><tspan>2013 (N=2231)</tspan></text><rect x="2" y="4" width="12" height="12" fill="#256370" class="highcharts-point"></rect></g><g class="highcharts-legend-item highcharts-column-series highcharts-color-undefined highcharts-series-1" transform="translate(129.328125,3)"><text x="21" y="15" style="color:#333333;font-size:12px;font-weight:normal;cursor:pointer;fill:#333333;" text-anchor="start"><tspan>2009 (N=3119)</tspan></text><rect x="2" y="4" width="12" height="12" fill="#A8C4CB" class="highcharts-point"></rect></g></g></g></g><g class="highcharts-axis-labels highcharts-xaxis-labels "><text x="148" style="color:#000000;cursor:default;font-size:11px;fill:#000000;" text-anchor="end" transform="translate(0,0)" y="135" opacity="1"><tspan>Berufliche Probleme</tspan></text><text x="148" style="color:#000000;cursor:default;font-size:11px;fill:#000000;" text-anchor="end" transform="translate(0,0)" y="171" opacity="1"><tspan>Gesundheitliche Probleme</tspan></text><text x="148" style="color:#000000;cursor:default;font-size:11px;fill:#000000;" text-anchor="end" transform="translate(0,0)" y="207" opacity="1"><tspan>Finanzielle Probleme</tspan></text><text x="148" style="color:#000000;cursor:default;font-size:11px;fill:#000000;" text-anchor="end" transform="translate(0,0)" y="243" opacity="1"><tspan>Wohnungsprobleme</tspan></text><text x="148" style="color:#000000;cursor:default;font-size:11px;fill:#000000;" text-anchor="end" transform="translate(0,0)" y="279" opacity="1"><tspan>Partnerschaftliche Probleme</tspan></text><text x="148" style="color:#000000;cursor:default;font-size:11px;fill:#000000;" text-anchor="end" transform="translate(0,0)" y="308" opacity="1"><tspan>Schulische Probleme der</tspan><tspan dy="14" x="148">Kinder</tspan><title>Schulische Probleme der Kinder</title></text><text x="148" style="color:#000000;cursor:default;font-size:11px;fill:#000000;" text-anchor="end" transform="translate(0,0)" y="344" opacity="1"><tspan>Erziehungsfragen oder -</tspan><tspan dy="14" x="148">probleme</tspan><title>Erziehungsfragen oder -probleme</title></text></g><g class="highcharts-axis-labels highcharts-yaxis-labels "><text x="163" style="color:#000000;cursor:default;font-size:11px;fill:#000000;" text-anchor="middle" transform="translate(0,0)" y="383" opacity="1"><tspan>0%</tspan></text><text x="225.4" style="color:#000000;cursor:default;font-size:11px;fill:#000000;" text-anchor="middle" transform="translate(0,0)" y="383" opacity="1"><tspan>10%</tspan></text><text x="287.8" style="color:#000000;cursor:default;font-size:11px;fill:#000000;" text-anchor="middle" transform="translate(0,0)" y="383" opacity="1"><tspan>20%</tspan></text><text x="350.20000000000005" style="color:#000000;cursor:default;font-size:11px;fill:#000000;" text-anchor="middle" transform="translate(0,0)" y="383" opacity="1"><tspan>30%</tspan></text><text x="412.6" style="color:#000000;cursor:default;font-size:11px;fill:#000000;" text-anchor="middle" transform="translate(0,0)" y="383" opacity="1"><tspan>40%</tspan></text><text x="464" style="color:#000000;cursor:default;font-size:11px;fill:#000000;" text-anchor="middle" transform="translate(0,0)" y="383" opacity="1"><tspan>50%</tspan></text></g><text x="10" class="highcharts-credits" text-anchor="start" style="cursor:default;color:#000000;font-size:10px;fill:#000000;" y="400"><tspan>Quelle: Statistisches Amt Basel-Stadt, kantonale Familienbefragung: F72a-g</tspan></text></svg>

<svg class="highcharts-root" xmlns="http://www.w3.org/2000/svg" viewBox="0 0 485 415" font-family="arial" font-size="12">
    <defs>
        <clipPath id="a">
            <path fill="none" d="M0 0h252v312H0z"/>
        </clipPath>
    </defs>
    <rect fill="#fbfbfb" class="highcharts-background" width="485" height="415" rx="0" ry="0"/>
    <path fill="none" class="highcharts-plot-background" d="M163 112h312v252H163z"/>
    <g class="highcharts-grid highcharts-xaxis-grid">
        <path fill="none" class="highcharts-grid-line" d="M163 148.5h312m-312 36h312m-312 36h312m-312 36h312m-312 36h312m-312 36h312m-312 36h312m-312-252h312"/>
    </g>
    <g class="highcharts-grid highcharts-yaxis-grid">
        <path fill="none" stroke="#e6e6e6" class="highcharts-grid-line" d="M162.5 112v252m62-252v252m63-252v252m62-252v252m63-252v252m63-252v252"/>
    </g>
    <path fill="none" class="highcharts-plot-border" d="M163 112h312v252H163z"/>
    <g class="highcharts-axis highcharts-xaxis">
        <path fill="none" class="highcharts-tick" stroke="#FFF" d="M163 148.5h-10m10 36h-10m10 36h-10m10 36h-10m10 36h-10m10 36h-10m10 36h-10m10-253h-10"/>
        <path fill="none" class="highcharts-axis-line" stroke="#ccd6eb" d="M162.5 112v252"/>
    </g>
    <g class="highcharts-axis highcharts-yaxis">
        <path fill="none" class="highcharts-axis-line" d="M163 364h312"/>
    </g>
    <g class="highcharts-series-group">
        <g class="highcharts-series highcharts-series-0 highcharts-column-series highcharts-color-undefined" transform="matrix(0 -1 -1 0 475 364)" clip-path="url(#a)">
            <path fill="#256370" stroke="#fff" class="highcharts-point" d="M234.5 130.5h9v182h-9zm-36 53h9v129h-9zm-36 77h9v52h-9zm-36-87h9v139h-9zm-36-69h9v208h-9zm-36 65h9v143h-9zm-36-148h9v291h-9z"/>
        </g>
        <g class="highcharts-series highcharts-series-1 highcharts-column-series highcharts-color-undefined" transform="matrix(0 -1 -1 0 475 364)" clip-path="url(#a)">
            <path fill="#A8C4CB" stroke="#fff" class="highcharts-point" d="M223.5 146.5h9v166h-9zm-36 48h9v118h-9zm-36 59h9v59h-9zm-36-60h9v119h-9zm-36-76h9v195h-9zm-36 48h9v147h-9zm-36-146h9v293h-9z"/>
        </g>
    </g>
    <text x="10" class="highcharts-title" y="21" color="#000" font-size="14" font-weight="700">
        <tspan>Unterstützung von Freunden oder Nachbarn</tspan>
    </text>
    <text x="10" class="highcharts-subtitle" y="40" color="#000" font-weight="400">
        <tspan>«Jeder Mensch braucht in seinem Leben einmal Unterstützung oder Hilfe.</tspan><tspan dy="15" x="10">Wenn Sie zurück denken, haben Sie sich in nachfolgenden Situationen auch</tspan><tspan dy="15" x="10">an Freunde/Nachbarn gewendet?»</tspan><title>«Jeder Mensch braucht in seinem Leben einmal Unterstützung oder Hilfe. Wenn Sie zurück denken, haben Sie sich in nachfolgenden Situationen auch an Freunde/Nachbarn gewendet?»</title>
    </text>
    <g class="highcharts-legend" transform="translate(153 75)">
        <rect fill="none" class="highcharts-legend-box" rx="0" ry="0" width="238" height="25"/>
        <g class="highcharts-legend-item highcharts-column-series highcharts-color-undefined highcharts-series-0">
            <text x="21" y="15" color="#333" font-weight="400" cursor="pointer" fill="#333" transform="translate(8 3)">
                <tspan>2013 (N=2231)</tspan>
            </text>
            <path fill="#256370" class="highcharts-point" d="M10 7h12v12H10z"/>
        </g>
        <g class="highcharts-legend-item highcharts-column-series highcharts-color-undefined highcharts-series-1">
            <text x="21" y="15" color="#333" font-weight="400" cursor="pointer" fill="#333" transform="translate(129.328 3)">
                <tspan>2009 (N=3119)</tspan>
            </text>
            <path fill="#A8C4CB" class="highcharts-point" d="M131.328 7h12v12h-12z"/>
        </g>
    </g>
    <g class="highcharts-axis-labels highcharts-xaxis-labels" text-anchor="end" color="#000" cursor="default" font-size="11">
        <text x="148" y="135">
            <tspan>Berufliche Probleme</tspan>
        </text>
        <text x="148" y="171">
            <tspan>Gesundheitliche Probleme</tspan>
        </text>
        <text x="148" y="207">
            <tspan>Finanzielle Probleme</tspan>
        </text>
        <text x="148" y="243">
            <tspan>Wohnungsprobleme</tspan>
        </text>
        <text x="148" y="279">
            <tspan>Partnerschaftliche Probleme</tspan>
        </text>
        <text x="148" y="308">
            <tspan>Schulische Probleme der</tspan><tspan dy="14" x="148">Kinder</tspan><title>Schulische Probleme der Kinder</title>
        </text>
        <text x="148" y="344">
            <tspan>Erziehungsfragen oder -</tspan><tspan dy="14" x="148">probleme</tspan><title>Erziehungsfragen oder -probleme</title>
        </text>
    </g>
    <g class="highcharts-axis-labels highcharts-yaxis-labels" text-anchor="middle" color="#000" cursor="default" font-size="11">
        <text x="163" y="383">
            <tspan>0%</tspan>
        </text>
        <text x="225.4" y="383">
            <tspan>10%</tspan>
        </text>
        <text x="287.8" y="383">
            <tspan>20%</tspan>
        </text>
        <text x="350.2" y="383">
            <tspan>30%</tspan>
        </text>
        <text x="412.6" y="383">
            <tspan>40%</tspan>
        </text>
        <text x="464" y="383">
            <tspan>50%</tspan>
        </text>
    </g>
    <text x="10" class="highcharts-credits" y="400" cursor="default" color="#000" font-size="10">
        <tspan>Quelle: Statistisches Amt Basel-Stadt, kantonale Familienbefragung: F72a-g</tspan>
    </text>
</svg>
